X:1
T:Svingedans
T:(FMK M 54 bild 41)
T:efter Lars Peng
B:Folkmusikkommissionen
R:Svingedans
O:Röddinge, Skåne
Z:Åke Persson 2012-03-13
M:3/4
L:1/8
Q:108
%%printtempo 0
%%MIDI ratio 2 1
K:D
|: A>A AA (=cB) | GB {Bc}BA A2 | A>c ee g>f | df {fg}(fe) [e2e2] :|
|: (Aa) aa aa | ba ez c(A/c/ | e)a aa aa | (ba) ez [c2e2] | d>f fc ed | BG ({Bc}B{cB})A [A2A2] :|

